img/songs_icon.svg

<?xml version="1.0" encoding="iso-8859-1"?>
<!-- Generator: Adobe Illustrator 16.0.0, SVG Export Plug-In . SVG Version: 6.00 Build 0)  -->
<!DOCTYPE svg PUBLIC "-//W3C//DTD SVG 1.1//EN" "http://www.w3.org/Graphics/SVG/1.1/DTD/svg11.dtd">
<svg version="1.1" id="Capa_1" xmlns="http://www.w3.org/2000/svg" xmlns:xlink="http://www.w3.org/1999/xlink" x="0px" y="0px"
	 width="47px" height="47px" viewBox="0 0 47 47" style="enable-background:new 0 0 47 47;" xml:space="preserve">
<g>
	<g>
		<g>
			<path d="M2.41,31.936c-1.331,0-2.41-1.078-2.41-2.41v-12.05c0-1.331,1.079-2.41,2.41-2.41s2.41,1.079,2.41,2.41v12.05
				C4.82,30.855,3.741,31.936,2.41,31.936z"/>
		</g>
		<g>
			<path d="M9.44,37.962c-1.331,0-2.41-1.079-2.41-2.41V11.448c0-1.331,1.079-2.41,2.41-2.41s2.41,1.079,2.41,2.41v24.104
				C11.851,36.883,10.771,37.962,9.44,37.962z"/>
		</g>
		<g>
			<path d="M16.47,34.948c-1.331,0-2.41-1.079-2.41-2.41V14.462c0-1.331,1.079-2.41,2.41-2.41c1.331,0,2.411,1.079,2.411,2.41
				v18.076C18.88,33.869,17.801,34.948,16.47,34.948z"/>
		</g>
		<g>
			<path d="M23.5,40.975c-1.331,0-2.41-1.078-2.41-2.41V8.436c0-1.331,1.079-2.41,2.41-2.41s2.41,1.079,2.41,2.41v30.128
				C25.91,39.896,24.831,40.975,23.5,40.975z"/>
		</g>
		<g>
			<path d="M30.529,47c-1.33,0-2.41-1.079-2.41-2.41V2.41c0-1.331,1.08-2.41,2.41-2.41c1.332,0,2.41,1.079,2.41,2.41v42.18
				C32.939,45.921,31.861,47,30.529,47z"/>
		</g>
		<g>
			<path d="M37.561,37.962c-1.332,0-2.41-1.079-2.41-2.41V11.448c0-1.331,1.078-2.41,2.41-2.41c1.33,0,2.41,1.079,2.41,2.41v24.104
				C39.971,36.883,38.891,37.962,37.561,37.962z"/>
		</g>
		<g>
			<path d="M44.59,28.923c-1.331,0-2.41-1.079-2.41-2.409v-6.026c0-1.331,1.079-2.41,2.41-2.41S47,19.157,47,20.488v6.026
				C47,27.844,45.921,28.923,44.59,28.923z"/>
		</g>
	</g>
</g>
<g>
</g>
<g>
</g>
<g>
</g>
<g>
</g>
<g>
</g>
<g>
</g>
<g>
</g>
<g>
</g>
<g>
</g>
<g>
</g>
<g>
</g>
<g>
</g>
<g>
</g>
<g>
</g>
<g>
</g>
</svg>

<?xml version="1.0" encoding="UTF-8" standalone="no"?>
<svg width="47px" height="47px" viewBox="0 0 47 47" version="1.1" xmlns="http://www.w3.org/2000/svg" xmlns:xlink="http://www.w3.org/1999/xlink" xmlns:sketch="http://www.bohemiancoding.com/sketch/ns">
    <!-- Generator: Sketch 3.4 (15575) - http://www.bohemiancoding.com/sketch -->
    <title>songs_icon</title>
    <desc>Created with Sketch.</desc>
    <defs></defs>
    <g id="Page-1" stroke="none" stroke-width="1" fill="none" fill-rule="evenodd" sketch:type="MSPage">
        <g id="songs_icon" sketch:type="MSLayerGroup" fill="#FFFFFF">
            <g id="Group" sketch:type="MSShapeGroup">
                <path d="M2.41,31.936 C1.079,31.936 0,30.858 0,29.526 L0,17.476 C0,16.145 1.079,15.066 2.41,15.066 C3.741,15.066 4.82,16.145 4.82,17.476 L4.82,29.526 C4.82,30.855 3.741,31.936 2.41,31.936 L2.41,31.936 Z" id="Shape"></path>
                <path d="M9.44,37.962 C8.109,37.962 7.03,36.883 7.03,35.552 L7.03,11.448 C7.03,10.117 8.109,9.038 9.44,9.038 C10.771,9.038 11.85,10.117 11.85,11.448 L11.85,35.552 C11.851,36.883 10.771,37.962 9.44,37.962 L9.44,37.962 Z" id="Shape"></path>
                <path d="M16.47,34.948 C15.139,34.948 14.06,33.869 14.06,32.538 L14.06,14.462 C14.06,13.131 15.139,12.052 16.47,12.052 C17.801,12.052 18.881,13.131 18.881,14.462 L18.881,32.538 C18.88,33.869 17.801,34.948 16.47,34.948 L16.47,34.948 Z" id="Shape"></path>
                <path d="M23.5,40.975 C22.169,40.975 21.09,39.897 21.09,38.565 L21.09,8.436 C21.09,7.105 22.169,6.026 23.5,6.026 C24.831,6.026 25.91,7.105 25.91,8.436 L25.91,38.564 C25.91,39.896 24.831,40.975 23.5,40.975 L23.5,40.975 Z" id="Shape"></path>
                <path d="M30.529,47 C29.199,47 28.119,45.921 28.119,44.59 L28.119,2.41 C28.119,1.079 29.199,0 30.529,0 C31.861,0 32.939,1.079 32.939,2.41 L32.939,44.59 C32.939,45.921 31.861,47 30.529,47 L30.529,47 Z" id="Shape"></path>
                <path d="M37.561,37.962 C36.229,37.962 35.151,36.883 35.151,35.552 L35.151,11.448 C35.151,10.117 36.229,9.038 37.561,9.038 C38.891,9.038 39.971,10.117 39.971,11.448 L39.971,35.552 C39.971,36.883 38.891,37.962 37.561,37.962 L37.561,37.962 Z" id="Shape"></path>
                <path d="M44.59,28.923 C43.259,28.923 42.18,27.844 42.18,26.514 L42.18,20.488 C42.18,19.157 43.259,18.078 44.59,18.078 C45.921,18.078 47,19.157 47,20.488 L47,26.514 C47,27.844 45.921,28.923 44.59,28.923 L44.59,28.923 Z" id="Shape"></path>
            </g>
        </g>
    </g>
</svg>
